X: 2
T: Old Joe's
R: jig
M: 6/8
L: 1/8
K: Dmaj
|:fAA AFA | BAF ABA | BdB AFA |Bcd efg |fAA AFA | BAF ABA | BdB AFA | Bdc d3 :||: f3 efe | dBA d2e | faa a^ga |baf e2d |f3 efe | dBA d2e | fAA AFA | Bdc d3 :|


Tune 1732	Setting 6063

